assets/icons/check-spelling.svg

<?xml version="1.0" encoding="UTF-8" standalone="no"?>
<svg viewBox="0 0 24 24" height="24" id="svg7384" version="1.1" width="24" sodipodi:docname="check-spelling.svg" inkscape:version="1.1 (ce6663b3b7, 2021-05-25)"
   xmlns:inkscape="http://www.inkscape.org/namespaces/inkscape"
   xmlns:sodipodi="http://sodipodi.sourceforge.net/DTD/sodipodi-0.dtd"
   xmlns="http://www.w3.org/2000/svg"
   xmlns:svg="http://www.w3.org/2000/svg"
   xmlns:rdf="http://www.w3.org/1999/02/22-rdf-syntax-ns#"
   xmlns:cc="http://creativecommons.org/ns#"
   xmlns:dc="http://purl.org/dc/elements/1.1/">
   <sodipodi:namedview id="namedview21" pagecolor="#ffffff" bordercolor="#666666" borderopacity="1.0" inkscape:pageshadow="2" inkscape:pageopacity="0.0" inkscape:pagecheckerboard="0" showgrid="true" inkscape:snap-page="true" inkscape:zoom="19.79899" inkscape:cx="0.42931483" inkscape:cy="10.00051" inkscape:window-width="1920" inkscape:window-height="1043" inkscape:window-x="1920" inkscape:window-y="0" inkscape:window-maximized="1" inkscape:current-layer="svg7384">
      <inkscape:grid type="xygrid" id="grid837" />
      <inkscape:grid type="xygrid" id="grid922" dotted="true" spacingx="0.5" spacingy="0.5" empspacing="10" />
   </sodipodi:namedview>
   <metadata id="metadata20854">
      <rdf:RDF>
         <cc:Work rdf:about="">
            <dc:format>image/svg+xml</dc:format>
            <dc:type rdf:resource="http://purl.org/dc/dcmitype/StillImage" />
         </cc:Work>
      </rdf:RDF>
   </metadata>
   <defs id="defs7386">
      <linearGradient id="linearGradient5606" inkscape:swatch="solid">
         <stop id="stop5608" offset="0" style="stop-color:#000000;stop-opacity:1;" />
      </linearGradient>
      <linearGradient id="linearGradient4526" inkscape:swatch="solid">
         <stop id="stop4528" offset="0" style="stop-color:#ffffff;stop-opacity:1;" />
      </linearGradient>
      <linearGradient id="linearGradient3600-4" inkscape:swatch="gradient">
         <stop id="stop3602-7" offset="0" style="stop-color:#f4f4f4;stop-opacity:1" />
         <stop id="stop3604-6" offset="1" style="stop-color:#dbdbdb;stop-opacity:1" />
      </linearGradient>
   </defs>
   <path id="path3115" style="font-style:normal;font-variant:normal;font-weight:500;font-stretch:normal;font-size:17.3333px;line-height:1.25;font-family:Ubuntu;-inkscape-font-specification:'Ubuntu, Medium';font-variant-ligatures:normal;font-variant-caps:normal;font-variant-numeric:normal;font-feature-settings:normal;text-align:start;letter-spacing:0px;word-spacing:0px;writing-mode:lr-tb;text-anchor:start;fill:#808080;fill-opacity:1;stroke:none;stroke-width:0.9995" d="m 10.701172,2 c -0.505563,1.067825 -0.997947,2.1513594 -1.4746095,3.2480469 -0.4766625,1.096675 -0.9620125,2.2488125 -1.453125,3.4609375 -0.4766625,1.2121246 -0.9651406,2.4990556 -1.4707031,3.8554686 -0.5055625,1.356425 -1.0421313,2.833809 -1.6054688,4.435547 h 1.6777344 1.1621094 c 0.202225,-0.5772 0.4032562,-1.153268 0.6054687,-1.730469 0.2166625,-0.591625 0.5301969,-1.413468 0.7324219,-2.019531 h 6.125 c 0.202225,0.606063 0.5099,1.420847 0.726562,1.998047 0.216662,0.5772 0.426669,1.160328 0.628907,1.751953 h 0.01953 2.927734 c -0.563338,-1.601738 -1.106953,-3.079122 -1.626953,-4.435547 -0.505563,-1.356413 -1.003027,-2.643344 -1.49414,-3.8554686 -0.476662,-1.212125 -0.953025,-2.3642625 -1.429688,-3.4609375 -0.476662,-1.0966875 -0.967094,-2.1802219 -1.472656,-3.2480469 z m 1.298828,2.9003906 c 0.317775,0.735925 0.691663,1.6603719 1.125,2.7714844 0.371225,0.951825 0.759532,1.999063 1.152344,3.078125 h -4.558594 c 0.390562,-1.076025 0.774325,-2.1180906 1.132812,-3.0566406 0.433339,-1.0967 0.816213,-2.0281813 1.148438,-2.7929688 z" />
   <g id="layer9" label="status" style="display:inline;stroke-width:0.8" transform="matrix(1.25,0,0,1.25,-589.25025,-139.25)" />
   <g id="layer2" style="display:inline;stroke-width:0.8" transform="matrix(1.25,0,0,1.25,-288,-598)" />
   <g id="layer4" style="display:inline;stroke-width:0.8" transform="matrix(1.25,0,0,1.25,-288,-598)" />
   <g id="g1812" style="display:inline;stroke-width:0.8" transform="matrix(1.25,0,0,1.25,-288,-598)" />
   <g id="g6217" style="display:inline;stroke-width:0.8" transform="matrix(1.25,0,0,1.25,-288,-598)" />
   <g id="layer3" style="display:inline;stroke-width:0.8" transform="matrix(1.25,0,0,1.25,-288,-598)" />
   <g id="g1833" style="display:inline;stroke-width:0.8" transform="matrix(1.25,0,0,1.25,-288,-598)" />
   <path id="path957" style="color:#000000;fill:#808080;-inkscape-stroke:none;fill-opacity:1" d="M 5.5 18 C 4.9583339 18 4.5149565 18.300021 4.2246094 18.648438 C 3.9342623 18.996855 3.7402342 19.402344 3.5527344 19.777344 C 3.3652346 20.152343 3.1842618 20.496856 3.0058594 20.710938 C 2.827457 20.92502 2.7083331 21 2.5 21 L 2.5 22 C 3.0416661 22 3.4850435 21.699979 3.7753906 21.351562 C 4.0657377 21.003146 4.2597658 20.597656 4.4472656 20.222656 C 4.6347654 19.847657 4.8157382 19.503145 4.9941406 19.289062 C 5.172543 19.07498 5.291667 19 5.5 19 C 5.708333 19 5.8274574 19.07498 6.0058594 19.289062 C 6.1842624 19.503145 6.3652354 19.847657 6.5527344 20.222656 C 6.7402344 20.597656 6.9342624 21.003146 7.2246094 21.351562 C 7.5149564 21.69998 7.958334 22 8.5 22 C 9.0416661 22 9.4850431 21.699979 9.7753906 21.351562 C 10.065738 21.003146 10.259766 20.597656 10.447266 20.222656 C 10.634765 19.847657 10.815738 19.503145 10.994141 19.289062 C 11.172543 19.07498 11.291667 19 11.5 19 C 11.708333 19 11.827457 19.07498 12.005859 19.289062 C 12.184262 19.503145 12.365235 19.847657 12.552734 20.222656 C 12.740234 20.597656 12.934262 21.003146 13.224609 21.351562 C 13.514956 21.69998 13.958334 22 14.5 22 C 15.041666 22 15.485044 21.699979 15.775391 21.351562 C 16.065738 21.003146 16.259766 20.597656 16.447266 20.222656 C 16.634765 19.847657 16.815738 19.503145 16.994141 19.289062 C 17.172543 19.07498 17.291667 19 17.5 19 C 17.708333 19 17.827457 19.07498 18.005859 19.289062 C 18.184262 19.503145 18.365235 19.847657 18.552734 20.222656 C 18.740234 20.597656 18.934262 21.003146 19.224609 21.351562 C 19.514956 21.69998 19.958334 22 20.5 22 L 20.5 21 C 20.291667 21 20.172543 20.92502 19.994141 20.710938 C 19.815738 20.496855 19.634765 20.152343 19.447266 19.777344 C 19.259766 19.402344 19.065738 18.996855 18.775391 18.648438 C 18.485044 18.30002 18.041666 18 17.5 18 C 16.958334 18 16.514957 18.300021 16.224609 18.648438 C 15.934262 18.996855 15.740234 19.402344 15.552734 19.777344 C 15.365235 20.152343 15.184262 20.496856 15.005859 20.710938 C 14.827457 20.92502 14.708333 21 14.5 21 C 14.291667 21 14.172543 20.92502 13.994141 20.710938 C 13.815738 20.496855 13.634765 20.152343 13.447266 19.777344 C 13.259766 19.402344 13.065738 18.996855 12.775391 18.648438 C 12.485044 18.30002 12.041666 18 11.5 18 C 10.958334 18 10.514957 18.300021 10.224609 18.648438 C 9.9342624 18.996855 9.7402344 19.402344 9.5527344 19.777344 C 9.365235 20.152343 9.1842618 20.496856 9.0058594 20.710938 C 8.827457 20.92502 8.7083331 21 8.5 21 C 8.291667 21 8.1725426 20.92502 7.9941406 20.710938 C 7.8157376 20.496855 7.6347646 20.152343 7.4472656 19.777344 C 7.2597656 19.402344 7.0657376 18.996855 6.7753906 18.648438 C 6.4850436 18.30002 6.041666 18 5.5 18 z " />
</svg>

<svg height="24" width="24" xmlns="http://www.w3.org/2000/svg"><path style="font-style:normal;font-variant:normal;font-weight:500;font-stretch:normal;font-size:17.3333px;line-height:1.25;font-family:Ubuntu;-inkscape-font-specification:'Ubuntu, Medium';font-variant-ligatures:normal;font-variant-caps:normal;font-variant-numeric:normal;font-feature-settings:normal;text-align:start;letter-spacing:0;word-spacing:0;writing-mode:lr-tb;text-anchor:start;fill:gray;fill-opacity:1;stroke:none;stroke-width:.9995" d="M10.701 2a110.902 110.902 0 0 0-1.474 3.248 149.644 149.644 0 0 0-1.454 3.461A253.916 253.916 0 0 0 4.697 17h2.84l.606-1.73c.216-.592.53-1.414.732-2.02H15c.202.606.51 1.42.727 1.998.216.577.426 1.16.628 1.752h2.948a169.662 169.662 0 0 0-1.627-4.436 147.307 147.307 0 0 0-1.494-3.855A105.996 105.996 0 0 0 13.279 2zM12 4.9c.318.736.692 1.66 1.125 2.772.371.952.76 1.999 1.152 3.078H9.72c.39-1.076.774-2.118 1.133-3.057A92.263 92.263 0 0 1 12 4.9z"/><path style="color:#000;fill:gray;-inkscape-stroke:none;fill-opacity:1" d="M5.5 18c-.542 0-.985.3-1.275.648-.29.349-.485.754-.672 1.13-.188.374-.369.719-.547.933-.179.214-.298.289-.506.289v1c.542 0 .985-.3 1.275-.648.29-.349.485-.754.672-1.13.188-.374.369-.719.547-.933.179-.214.298-.289.506-.289.208 0 .327.075.506.29.178.213.36.558.547.933.187.375.381.78.672 1.129.29.348.733.648 1.275.648.542 0 .985-.3 1.275-.648.29-.349.485-.754.672-1.13.188-.374.369-.719.547-.933.179-.214.298-.289.506-.289.208 0 .327.075.506.29.178.213.36.558.547.933.187.375.381.78.672 1.129.29.348.733.648 1.275.648.542 0 .985-.3 1.275-.648.29-.349.485-.754.672-1.13.188-.374.369-.719.547-.933.179-.214.298-.289.506-.289.208 0 .327.075.506.29.178.213.36.558.547.933.187.375.381.78.672 1.129.29.348.733.648 1.275.648v-1c-.208 0-.327-.075-.506-.29-.178-.213-.36-.558-.547-.933-.187-.375-.381-.78-.672-1.129-.29-.348-.733-.648-1.275-.648-.542 0-.985.3-1.275.648-.29.349-.485.754-.672 1.13-.188.374-.369.719-.547.933-.179.214-.298.289-.506.289-.208 0-.327-.075-.506-.29-.178-.213-.36-.558-.547-.933-.187-.375-.381-.78-.672-1.129-.29-.348-.733-.648-1.275-.648-.542 0-.985.3-1.275.648-.29.349-.485.754-.672 1.13-.188.374-.369.719-.547.933-.179.214-.298.289-.506.289-.208 0-.327-.075-.506-.29-.178-.213-.36-.558-.547-.933-.187-.375-.381-.78-.672-1.129C6.485 18.3 6.042 18 5.5 18z"/></svg>
